X:2
T: Op een grote paddestoel
S: Samenspel Kinderdagverblijf VUB 4 oktober 2008
M: 2/4
Q:1/4=90
L: 1/8
K:G
"G"G G "G"G "d"A |"G"B B "G"B2|"D"A "g"G "D"A "g"B |"G"G2 "G"D2|
"G"B B "G"B "d"c | "G"d d "G"d2| "D"c B "D"c d | "G"B2 "G"G2|
"G"d d "G"d d |"C" e e "C"e2 |"D" c c "D"c A| "G"d2 z2|
"G"G G "G"G "d"A| "G"B2 "G"B2 | "D"A "g"G "D"A "g"B  |"G" G2 z2||
W:
W: Op een gro-te pad-de-stoel, vol met wit-te stip-pen
W: Zat ka-bou-ter Pin-ne-muts heen en weer te wip-pen
W: Krak, zei toen die pad-de-stoel met een die-pe zucht
W: Hop-la met de been-tjes, Hop-la in de lucht.
